X: 41
T: Hills of Glen Orchy
C: Trad.
M: 6/8
Z: John Chambers 2003-11-25
K: EDor
L: 1/8
d/c/ \
| "Em"B2{G}E EFE | BAB d2B | "D"A2{F}D DED |  A2{F}D FAd \
| "Em"B2{G}E EFE | BAB d2e | "G"dBd "D"AFD | "Em"EFE E2 :|
|: B \
| "Em"efe edB | efg "A7"gfe | "D"ded    dAF | "(Bm)"dfe dBd \
| "Em"efe edB | efg     gfe | "G"dBd "D"AFD |   "Em"EFE E2 :|

%%sep 1 1 500

